X: 12036
T: Erin Go Bragh
R: jig
M: 6/8
K: Gmajor
|:DGG GBd|gfe d2c|B3 BAB|cBc AFE|
DGG GBd|gfe d2e|fed cAF|1 AGF GFE:|2 AGF G2g||
|:gdg gdg|gdg a2g|fef ded|cAG FGA|
B2B BAG|Add d2e|fed cAF|1 AGF G2g:|2 AGF GFE||

